src/assets/collaboration/curve-1.svg

<svg width="522" height="182" viewBox="0 0 522 182" fill="none" xmlns="http://www.w3.org/2000/svg">
<path d="M0.333333 179C0.333333 180.473 1.52724 181.667 3 181.667C4.47276 181.667 5.66667 180.473 5.66667 179C5.66667 177.527 4.47276 176.333 3 176.333C1.52724 176.333 0.333333 177.527 0.333333 179ZM517 3.5L522 5.88675V0.113249L517 2.5V3.5ZM3 179.5H131.782V178.5H3V179.5ZM212.282 99V83H211.282V99H212.282ZM291.782 3.5H517.5V2.5H291.782V3.5ZM212.282 83C212.282 39.0934 247.875 3.5 291.782 3.5V2.5C247.323 2.5 211.282 38.5411 211.282 83H212.282ZM131.782 179.5C176.241 179.5 212.282 143.459 212.282 99H211.282C211.282 142.907 175.688 178.5 131.782 178.5V179.5Z" fill="#252134"/>
</svg>

<svg width="522" height="182" fill="none" xmlns="http://www.w3.org/2000/svg"><path d="M.333 179a2.667 2.667 0 1 0 5.334 0 2.667 2.667 0 0 0-5.334 0ZM517 3.5l5 2.387V.113L517 2.5v1ZM3 179.5h128.782v-1H3v1ZM212.282 99V83h-1v16h1Zm79.5-95.5H517.5v-1H291.782v1Zm-79.5 79.5c0-43.907 35.593-79.5 79.5-79.5v-1c-44.459 0-80.5 36.041-80.5 80.5h1Zm-80.5 96.5c44.459 0 80.5-36.041 80.5-80.5h-1c0 43.907-35.594 79.5-79.5 79.5v1Z" fill="#252134"/></svg>
